src/icons/svg-colors/advantages7.svg

<svg width="44" height="60" viewBox="0 0 44 60" fill="none" xmlns="http://www.w3.org/2000/svg">
<path d="M41.0418 30.4192H38.6466V19.0419C38.6466 9.88024 31.1616 2.39521 21.9999 2.39521C12.8382 2.39521 5.35322 9.88024 5.35322 19.0419V30.4192H2.95801V19.0419C2.95801 8.56287 11.5209 0 21.9999 0C32.479 0 41.0418 8.56287 41.0418 19.0419V30.4192Z" fill="#060F42"/>
<path d="M41.5214 32.1558C41.5214 34.1917 39.8448 35.8684 37.8089 35.8684H37.5094C35.4735 35.8684 33.7969 34.1917 33.7969 32.1558V25.3893C33.7969 23.3534 35.4735 21.6768 37.5094 21.6768H37.8089C39.8448 21.6768 41.5214 23.3534 41.5214 25.3893V32.1558Z" fill="#01579B"/>
<path d="M37.3292 47.4251C37.3292 49.4012 35.6526 50.9581 33.5568 50.9581H10.3232C8.22743 50.9581 6.55078 49.4012 6.55078 47.4251V23.5329C6.55078 21.5569 8.22743 20 10.3232 20H33.5568C35.6526 20 37.3292 21.5569 37.3292 23.5329V47.4251Z" fill="#FFCD1B"/>
<path d="M36.251 21.7969V30.4196C36.251 38.2639 29.9037 44.6711 21.9995 44.6711C14.1552 44.6711 7.74805 38.3238 7.74805 30.4196V24.4316L14.2151 14.252L36.251 17.246" fill="white"/>
<path d="M21.9999 45.8687C13.4969 45.8687 6.55078 38.9226 6.55078 30.4196V24.0723L13.6166 12.9346L36.3711 16.0483L36.0717 18.4436L14.8143 15.5094L8.94599 24.731V30.3597C8.94599 37.5454 14.8143 43.4136 21.9999 43.4136C29.1855 43.4136 35.0538 37.5454 35.0538 30.3597V21.7968H37.449V30.4196C37.449 38.9226 30.5029 45.8687 21.9999 45.8687Z" fill="#060F42"/>
<path d="M7.74805 19.042V24.4911C12.778 24.3114 16.79 19.1018 16.79 12.5749C16.79 10.2994 16.3109 8.20363 15.4127 6.40723C10.8618 8.74256 7.74805 13.533 7.74805 19.042Z" fill="#FFCD1B"/>
<path d="M6.55078 25.6886V19.0418C6.55078 13.2335 9.72443 8.02388 14.8741 5.32927L15.952 4.73047L16.4909 5.86819C17.449 7.90412 17.9879 10.2395 17.9879 12.5748C17.9879 19.7604 13.4969 25.5089 7.74839 25.6886H6.55078ZM14.8741 8.08376C11.2214 10.479 8.94599 14.5508 8.94599 18.982V23.0538C12.7184 22.1556 15.5927 17.7245 15.5927 12.5149C15.6526 11.0179 15.3532 9.52089 14.8741 8.08376Z" fill="#FFCD1B"/>
<path d="M1.64062 59.9999V54.1317C1.64062 51.0179 4.51488 48.5029 7.98793 48.5029H35.952C39.4849 48.5029 42.2993 51.0179 42.2993 54.1317V59.9999" fill="white"/>
<path d="M43.5015 58.7767C43.5318 59.4433 42.9996 60.0003 42.3323 60.0003C41.6859 60.0003 41.1619 59.4763 41.1619 58.8299V54.132C41.1619 51.6769 38.8266 49.7009 36.0122 49.7009H7.98827C5.1739 49.7009 2.83857 51.7368 2.83857 54.132V58.8027C2.83857 59.4641 2.30238 60.0003 1.64096 60.0003C0.979545 60.0003 0.443359 59.4641 0.443359 58.8027V54.132C0.443359 50.4194 3.85653 47.3057 7.98827 47.3057H35.9523C40.144 47.3057 43.4973 50.3596 43.4973 54.132V58.6829L43.5015 58.7767Z" fill="#060F42"/>
<path d="M22.21 52.3955H22.1501C21.5052 52.3955 20.9824 52.9183 20.9824 53.5632C20.9824 54.2081 21.5052 54.7308 22.1501 54.7308H22.21C22.8548 54.7308 23.3776 54.2081 23.3776 53.5632C23.3776 52.9183 22.8548 52.3955 22.21 52.3955Z" fill="#060F42"/>
<path d="M22.21 57.6641H22.1501C21.5052 57.6641 20.9824 58.1868 20.9824 58.8317C20.9824 59.4766 21.5052 59.9994 22.1501 59.9994H22.21C22.8549 59.9994 23.3776 59.4766 23.3776 58.8317C23.3776 58.1868 22.8549 57.6641 22.21 57.6641Z" fill="#060F42"/>
<path d="M9.60474 32.1558C9.60474 34.1917 7.9281 35.8684 5.89217 35.8684H5.53289C3.49696 35.8684 1.82031 34.1917 1.82031 32.1558V25.3893C1.82031 23.3534 3.49696 21.6768 5.53289 21.6768H5.83229C7.86822 21.6768 9.54486 23.3534 9.54486 25.3893V32.1558H9.60474Z" fill="#01579B"/>
<path d="M24.156 33.114V28.1439C24.156 27.4825 23.6198 26.9463 22.9583 26.9463C22.2969 26.9463 21.7607 27.4825 21.7607 28.1439V33.114C21.7607 33.7754 22.2969 34.3116 22.9583 34.3116C23.6198 34.3116 24.156 33.7754 24.156 33.114Z" fill="#060F42"/>
<path d="M5.35322 30.4192H2.95801V19.0419C2.95801 8.56287 11.5209 0 21.9999 0V2.39521C12.8382 2.39521 5.35322 9.88024 5.35322 19.0419V30.4192Z" fill="#060F42"/>
<path d="M22 4.79004C18.2276 4.79004 14.7545 6.28705 12.1797 8.68226C12.4192 17.9637 21.2216 25.3888 32 25.3888C33.4372 25.3888 34.8743 25.2691 36.2515 24.9697V19.0415C36.2515 11.1373 29.8444 4.79004 22 4.79004Z" fill="#FFCD1B"/>
<path d="M32.0004 26.5868C20.5034 26.5868 11.2818 18.7425 10.9824 8.74247V8.20355L11.3417 7.84427C14.2758 5.08978 18.0483 3.59277 22.0004 3.59277C30.5034 3.59277 37.4495 10.5389 37.4495 19.0419V25.988L36.4914 26.1676C34.9944 26.4071 33.4974 26.5868 32.0004 26.5868ZM13.4375 9.22152C13.9764 17.485 22.2399 24.1916 32.0603 24.1916C33.0782 24.1916 34.0962 24.1317 35.1142 23.9521V19.0419C35.0543 11.8562 29.186 5.98798 22.0004 5.98798C18.8267 5.98798 15.7728 7.12571 13.4375 9.22152Z" fill="#FFCD1B"/>
<path d="M36.1317 41.7366H25.473C24.8116 41.7366 24.2754 41.2004 24.2754 40.539C24.2754 39.8776 24.8116 39.3414 25.473 39.3414H36.1317C36.7904 39.3414 37.3293 38.8025 37.3293 38.1438V36.4671C37.3293 35.8057 37.8655 35.2695 38.5269 35.2695C39.1883 35.2695 39.7245 35.8057 39.7245 36.4671V38.1438C39.7245 40.1198 38.1676 41.7366 36.1317 41.7366Z" fill="#060F42"/>
</svg>

<svg xmlns="http://www.w3.org/2000/svg" width="44" height="60" viewBox="0 0 44 60"><g><g><g/><g><g><g><path fill="#060f42" d="M41.044 30.42h-2.395V19.041c0-9.162-7.485-16.647-16.647-16.647-9.162 0-16.647 7.485-16.647 16.647v11.377H2.96V19.042C2.96 8.562 11.523 0 22.002 0 32.48 0 41.044 8.563 41.044 19.042z"/></g></g><g><path fill="#01579b" d="M41.525 32.159a3.731 3.731 0 0 1-3.713 3.713h-.3a3.731 3.731 0 0 1-3.712-3.713v-6.766a3.731 3.731 0 0 1 3.713-3.713h.299a3.731 3.731 0 0 1 3.713 3.713z"/></g><g><path fill="#ffcd1b" d="M37.328 47.425c0 1.976-1.676 3.533-3.772 3.533H10.322c-2.095 0-3.772-1.557-3.772-3.533V23.533C6.55 21.557 8.227 20 10.322 20h23.234c2.096 0 3.772 1.557 3.772 3.533z"/></g><g><g><path fill="#fff" d="M36.253 21.795v8.623c0 7.844-6.347 14.251-14.252 14.251-7.844 0-14.251-6.347-14.251-14.251V24.43l6.467-10.18 22.036 2.994"/></g><g><path fill="#060f42" d="M22 45.864c-8.504 0-15.45-6.946-15.45-15.449v-6.347l7.066-11.138 22.754 3.114-.299 2.395-21.258-2.934-5.868 9.221v5.63c0 7.185 5.868 13.053 13.054 13.053s13.054-5.868 13.054-13.054v-8.563h2.395v8.623c0 8.503-6.946 15.45-15.449 15.45z"/></g></g><g><g><path fill="#ffcd1b" d="M7.75 19.045v5.449c5.03-.18 9.042-5.39 9.042-11.916 0-2.276-.48-4.372-1.377-6.168-4.551 2.335-7.665 7.126-7.665 12.635z"/></g><g><path fill="#ffcd1b" d="M6.55 25.688v-6.647c0-5.808 3.174-11.018 8.323-13.712l1.078-.599.54 1.138a15.921 15.921 0 0 1 1.496 6.706c0 7.186-4.49 12.934-10.24 13.114zm8.323-17.605c-3.652 2.395-5.928 6.467-5.928 10.898v4.072c3.773-.898 6.647-5.329 6.647-10.539.06-1.497-.24-2.994-.719-4.43z"/></g></g><g><g><path fill="#fff" d="M1.64 59.997v-5.868c0-3.114 2.874-5.629 6.347-5.629h27.964c3.533 0 6.348 2.515 6.348 5.629v5.868"/></g><g><path fill="#060f42" d="M43.498 58.781a1.17 1.17 0 0 1-2.34.053v-4.698c0-2.455-2.335-4.43-5.15-4.43H7.986c-2.814 0-5.15 2.035-5.15 4.43v4.671a1.198 1.198 0 0 1-2.395 0v-4.67c0-3.713 3.413-6.827 7.545-6.827h27.964c4.192 0 7.545 3.054 7.545 6.826v4.551z"/></g></g><g><g><path fill="#060f42" d="M22.208 52.4h-.06a1.168 1.168 0 0 0 0 2.335h.06a1.168 1.168 0 1 0 0-2.335z"/></g></g><g><g><path fill="#060f42" d="M22.208 57.66h-.06a1.168 1.168 0 0 0 0 2.335h.06a1.168 1.168 0 0 0 0-2.335z"/></g></g><g><path fill="#01579b" d="M9.604 32.159a3.731 3.731 0 0 1-3.712 3.713h-.36a3.731 3.731 0 0 1-3.712-3.713v-6.766a3.731 3.731 0 0 1 3.713-3.713h.299a3.731 3.731 0 0 1 3.713 3.713v6.766z"/></g><g><g><path fill="#060f42" d="M24.155 33.118v-4.97a1.198 1.198 0 0 0-2.395 0v4.97a1.198 1.198 0 0 0 2.395 0z"/></g></g><g><g><path fill="#060f42" d="M5.355 30.42H2.96V19.041C2.96 8.562 11.523 0 22.002 0v2.395c-9.162 0-16.647 7.485-16.647 16.647z"/></g></g><g><g><path fill="#ffcd1b" d="M22 4.79c-3.772 0-7.245 1.497-9.82 3.892.24 9.282 9.042 16.707 19.82 16.707 1.437 0 2.875-.12 4.252-.42v-5.928C36.252 11.137 29.845 4.79 22 4.79z"/></g><g><path fill="#ffcd1b" d="M31.998 26.584c-11.497 0-20.719-7.844-21.018-17.844V8.2l.36-.358c2.933-2.755 6.706-4.252 10.658-4.252 8.503 0 15.45 6.946 15.45 15.45v6.945l-.959.18c-1.497.24-2.994.419-4.491.419zM13.435 9.219c.539 8.263 8.802 14.97 18.623 14.97 1.018 0 2.036-.06 3.054-.24v-4.91c-.06-7.186-5.928-13.054-13.114-13.054-3.174 0-6.228 1.138-8.563 3.234z"/></g></g><g><g><path fill="#060f42" d="M36.136 41.737H25.478a1.198 1.198 0 0 1 0-2.395h10.658c.659 0 1.198-.54 1.198-1.198v-1.676a1.198 1.198 0 0 1 2.395 0v1.676a3.565 3.565 0 0 1-3.593 3.593z"/></g></g></g></g></g></svg>
